X:2797
T:Polska efter Anders Gustaf Andersson
S:efter Anders Gustaf Andersson
B:[[http://www.sormlandsmusikarkiv.se/noter/oa/626-671.pdf#andersson_anders-Gustaf|Sörmlands musikarkiv - Anders Gustaf Andersson]], nr 641
O:Mörkö, Södermanland
R:Slängpolska
Z:Nils L
N:"Jfr Axelsson n:r 508"
M:3/4
L:1/16
K:Ddor
(A2d2) (d2^c2) (d2e2) | (fefg) a2(fg f2)e2 | "^\#"c2d2 "^\#"c2B2 G2A2 |1 B2cB A4 A,4 :|2 B2cB A8 |:
K:D
D2>F2 A4 =c2B2 | (B2cB) A4 F4 | F2GF E2E2 C2E2 | E2FE D2D2 A,4 |
D2>F2 A4 =c2B2 | (B2cB) A4 F4 | A2Bc d2e2 f2g2 | ((3efe)c2 d8 :|
(:musicend:)

(:music:)
